X:40
M:6/8
L:1/8
K:G
E>FG AFD| G3 G2:|
|:c|Bcd def|g2g g3|B2B Bcd|e2e e3|dcB cde|dBd D2 D|E>FG AFD|
|:A|B2G c2A|B2G c2A|~B>cd E2E|ABG FED|B2G c2A|B2G ~B>cd|
E>FG AFD|G3 G2:|

